X:1004
T:Reel de Gasp\'e
T:Gasp\'e Reel
R:reel
O:Quebec
Z:id:hn-reel-1004
M:C|
L:1/8
K:D
f3f e2d2 | AA2A B2A2 | g2fg f2eA | BABc B2A2 |
f2ef e2d2 | AA2A B2A2 | g2fg f2eA | B2c2 d4 :|
|: e3f g2e2 | f2g2 a4 | e3f g2eA | BABc B2A2 |
e3f g2e2 | f2g2 a4 |1 e3f g2eA | B2c2 d4 :|2 b3a g2eA | BABc d2f2 ||
|: e2c2 dcdf | e2c2 Bcdf | e2c2-c a^ga | fdBd c2A2 :|
e2c2 dcdf | e2c2 Bcdf | e2c2-c a^ga | fdBd c2A2 ||

